teeny/outline/screen-alt-2.svg

<svg width="15" height="15" viewBox="0 0 15 15" fill="none" xmlns="http://www.w3.org/2000/svg">
<path d="M2 14.5H13M5.5 10.5V14.5M9.5 10.5V14.5M0.5 1.5L0.5 9.5C0.5 10.0523 0.947716 10.5 1.5 10.5L13.5 10.5C14.0523 10.5 14.5 10.0523 14.5 9.5V1.5C14.5 0.947716 14.0523 0.500001 13.5 0.500001L1.5 0.5C0.947716 0.5 0.5 0.947716 0.5 1.5Z" stroke="black"/>
</svg>

<svg viewBox="0 0 15 15" xmlns="http://www.w3.org/2000/svg"><path fill="none" stroke="#000" d="M2 14.5h11m-7.5-4v4m4-4v4m-9-13v8c0 .55.44 1 1 1h12c.55 0 1-.45 1-1v-8c0-.56-.45-1-1-1L1.5.49c-.56 0-1 .44-1 1Z"/></svg>
